X:1
T:Ragtime Dance
T:Rag -Time Dance
T:A Stop-Time Two Step
T:By SCOTT JOPLIN
T:                 NOTICE: To get the desired effect of “Stop Time,” the pianist will please Stamp the heel of one foot heavily upon the floor at the word “Stamp.”  Do not raise the toe from the floor while stamping.
T:Public Domain
T:Public Domain
T:Public Domain
T:Public Domain
T:Public Domain
C:Scott Joplin
Z:Public Domain
%%score { ( 1 4 ) | ( 2 3 ) }
L:1/8
Q:1/4=80
M:2/4
K:Bb
V:1 treble nm="Piano" snm="Pno."
V:4 treble 
V:2 bass 
V:3 bass 
V:1
"^Not too fast" f/^f/g/^g/ a2- | a/a/b/=b/ c'2 | e'/d'/c'/b/ a/_a/g/_g/ | f z [fac'f'] z |: %4
 [Bdb]/[cec']/[dfd']- [dfd']/[cec']/[Bdb]/[cec']/ | [dfd'][Fdf]/[Fdf]/- [Fdf]/f/b/c'/ | %6
 [dd']/f/b/[dd']/- [dd']/f/[dd']/[ee']/- | [ee']/a/[ff']/a/ c'/[ee']f/ | %8
 [cac']/[dbd']/[ec'e']- [ec'e']/[dbd']/[cac']/[dbd']/ | [ec'e'][Fef]/[Fef]/- [Fef]/f/a/c'/ | %10
 [ee']/a/c'/[=e=e']/- [ee']/b/[ee']/[ff']/- | [ff']/d'/[gg']/d'/ f'/d'/b/f/ | %12
 [Bdb]/[cec']/[dfd']/[dfd']/ [dfd']/[cec']/[Bdb]/[cec']/ | [dfd'][Fdf]/[Fdf]/- [Fdf]/B/d/f/ | %14
 [_A_a]/d/f/[Aa]/- [Aa]/d/[Aa]/[Gg]/- | [Gg]/e/[^F^f]/B/ e/[Gg]g/- | g/(a/b/a/ b/a/b/g/ | %17
 f)[fd']- [fd']/g/=b/d'/ | [=e_bc']/[ebc'][ebd']/ [_ec']/f/[ec']/[ef]/ |1 [db]2- [db] z :|2 %20
 [db]2 [bd'f'b'] z |:[K:Eb] [GB][Ge]- [Ge]/[ce]/[Bd]/[Ac]/ | [Gc]/B/=A/B/- B/E/F/^F/ | %23
 G[Gc]- [Gc]/c/B/A/ | A/G/^F/G/- G/G/A/B/ | [Ac]/[Ad][Ac]/- [Ac]/F/G/A/ | %26
 [GB]/[Gc][GB]/- [GB]/B/c/^c/ | d/F^F/ [=EG][_E=A] | [DB]2- [DB] z | %29
 [GB][Ge]- [Ge]/[ce]/[Bd]/[Ac]/ | [Gc]/B/=A/B/- B/E/F/^F/ | G[Gc]- [Gc]/c/B/A/ | %32
 A/G/^F/G/- G/G/A/B/ | c[CE] [CEF][CE^F] | [B,EG] [C=EB]2 [CFA] | G2 F2 |1 [G,B,E]B [DAB]2 :|2 %37
 [G,B,E]B/b/ b/b/b |: [ad'][af'] [ac']>=b | [ac']/d/f/a/ b/c'b/ | [gc'][ge'] [gb]>=a | %41
 [gb]/B/e/f/ g/b/g/e/ | d/e/f/g/ a/b/d'/[ac']/- | [ac']/B/c/d/- d/a/g/f/ | %44
 e/=e/f/^f/ g/b/c'/[gb]/- | [gb]/B/e/g/- g/g/b | [ad'][af'] [ac']>=b | [ac']/d/f/a/ b/c'b/ | %48
 [gc'][ge'] [gb]>=a | [gb]/B/e/g/ bb | c'[ce] [cef][ce^f] | [Beg] [c=eb]2 [cfa] | g2 f2 |1 %53
 [GBe]b/b/ b/b/b :|2 [GBe] z [egbe'] z |: z!p! [Bg]- ([Bg]/e/[Bg]/e/) | [Aa] z z2 | %57
 z [Aa]- ([Aa]/e/[Aa]/e/) | [=A=a] z z2 | z [=A=a]- [Aa]/e/[Aa]/e/ | [Bb] z [cc']2- | %61
 [cc'][Bb]- [Bb]/g/f/B/ | e z [egbe'] z ::"^R.H." (b/=a/_a/=g/ _g/f/=e/_e/ | d/_d/c/_c/ B) z | %65
 (G,/A,/B,) z [=A,EG] | [_A,DF] z [DB] z |"^R.H." (a/g/_g/f/ =e/_e/d/_d/ | c/_c/B/=A/ _A) z | %69
 (F,/G,/A,) z [A,B,DF] |1 [G,B,E] z [EGBe] z :|2 [G,B,E] z [EGBe] z/ e/ |: %72
"^R.H." [_dg][df]/e/ [cg][cf]/e/ | ([_cf]/e/[cf]/g/) [Be][eb]/g/ |!<(! b/g/c'/b/- b/g/f/e/!<)! | %75
!<(! [=Aeg]/[Aef][Bdb]/-!<)!!>(! [Bdb]>e!>)! |!p! [_dg][df]/e/ [cg][cf]/e/ |1 %77
 ([_cf]/e/[cf]/g/) [Be][eb]/g/ |!<(! b/g/c'/b/- b/g/f/e/!<)! | %79
!<(! [Bg]/e/[Adf]!<)!!>(! [Ge]>e!>)! :|2 ([_cf]/e/[cf]/g/) [Be][=ce^f] || !^![Beg] z z2 | %82
 z !^![dab]!^![ege'] z!fine! |] %83
V:2
[I:staff -1] F/^F/G/^G/ A2- | A/A/B/=B/ c2 | e/d/c/B/ A/_A/G/_G/ |[I:staff +1] F, z [F,,F,] z |: %4
 B,,[F,B,D] F,,[F,B,D] | B,,[F,B,D] F,,[F,B,D] | [B,,B,][F,B,D] [=B,,=B,][F,^G,D] | %7
 [C,C][F,A,E] [F,,F,][F,A,E] | [F,,F,][F,A,E] [A,,A,][F,A,E] | [F,,F,][F,A,E] [A,,A,][F,CE] | %10
 [C,C][A,EF] [^C,^C][B,CG] | [D,D][B,DF] [B,,B,][F,B,D] | B,,[F,B,D] F,,[F,B,D] | %13
 B,,[F,B,D] F,,[F,B,D] | B,,[B,D] F,[B,D] | E,[B,E] E,[B,E] | =E,[G,B,^C] E,[G,B,C] | %17
 F,[B,D] G,,[G,=B,F] | C,[B,C=E] F,,[A,F] |1 B,[F,,F,] [G,,G,][A,,A,] :|2 B,[F,,F,][B,,,B,,] z |: %21
[K:Eb] E,[G,B,E] A,,[A,CE] | E,[G,B,E][G,B,E] z | C,[G,CE] F,[A,CF] | C,[G,CE][G,CE] z | %25
 F,[A,B,D] B,,[A,B,D] | E,[G,B,E] [G,,G,][_G,,_G,] | [F,,F,][F,B,D] [C,,C,][F,,F,] | %28
 [B,,,B,,][A,,A,] [G,,G,][F,,F,] | [E,,E,][G,B,E] A,,[A,CE] | E,[G,B,E][G,B,E] z | %31
 C,[G,CE] F,[A,CF] | C,[G,CE][G,CE] z | [A,,A,]2 [A,,A,][=A,,=A,] | [B,,B,] [C,,C,]2 [F,,,F,,] | %35
 [B,,,B,,]2 [B,,,B,,]2 |1 [E,,E,] z [B,,,B,,]2 :|2 [E,,E,]B,/B,/ B,/B,/B, |: F,[A,B,D] B,,[A,B,D] | %39
 F,[A,B,D] B,,[A,B,D] | E,[G,B,E] B,,[G,B,E] | E,[G,B,E] B,,[G,B,E] | F,[A,B,D] B,,[A,B,D] | %43
 F,[A,B,D] B,,[A,B,D] | E,[G,B,E] B,,[G,B,E] | E,[G,B,E] [=E,G,B,^C]2 | F,[A,B,D] B,,[A,B,D] | %47
 F,[A,B,D] B,,[A,B,D] | E,[G,B,E] B,,[G,B,E] | E,[G,B,E] G,[_DE] | [A,CE]2 [A,,A,][=A,,=A,] | %51
 [B,,B,] [C,,C,]2 [F,,,F,,] | [B,,,B,,]2 [B,,,B,,]2 |1 [E,,E,]B,/B,/ B,/B,/B, :|2 %54
 [E,,E,] z [E,,,E,,] z |:"_Stamp" z [_DE]-"_Stamp"[DE][DE] |"_Stamp" [CE] z"_Stamp" z2 | %57
"_Stamp" z [CE]-"_Stamp" [CE][CE] |"_Stamp" [_CE_G] z"_Stamp" z2 | %59
"_Stamp" z [_CE_G]-"_Stamp"[CEG][CEG] |"_Stamp" [B,E=G] z"_Stamp" [=A,E_G]2- | %61
"_Stamp" [A,EG][B,E=G]-"_Stamp" [B,EG][B,DA] |"_Stamp" [EG] z"_Stamp" [E,,E,] z :: %63
[K:bass]"^Stamp""^L.H."[I:staff -1] (g/^f/=f/=e/"^Stamp" _e/d/^c/=c/ | %64
"^Stamp" =B/_B/=A/_A/"^Stamp" G)[I:staff +1] z |"_Stamp" (E,/F,/G,)"_Stamp" z"_Stamp" [F,,,F,,] | %66
"_Stamp" [B,,,B,,] z"_Stamp" [B,,F,A,] z | %67
"^Stamp""^L.H."[I:staff -1] (f/=e/_e/d/"^Stamp" ^c/=c/=B/_B/ | %68
"^Stamp" =A/_A/G/^F/"^Stamp" =F)[I:staff +1] z |"_Stamp" (D,/E,/F,)"_Stamp" z [B,,,B,,] |1 %70
"_Stamp" [E,,E,] z"_Stamp" [E,,E,] z :|2"_Stamp" [E,,E,] z"_Stamp" [E,,E,] z |: %72
"^Stamp""^L.H."[I:staff -1] [B,B][B,B]"^Stamp" [=A,=A][A,A] | %73
"^Stamp" [_A,_A][A,A]"^Stamp" [G,G][G,G] | %74
"^Stamp"[I:staff +1] [E,,E,][B,EG]"^Stamp" [E,,E,][B,EG] | %75
"_Stamp" [F,,F,][F,,F,]"_Stamp" [B,,,B,,][B,,,B,,] | %76
"_Stamp"[I:staff -1] [B,B][B,B]"_Stamp" [=A,=A][A,A] |1"_Stamp" [_A,_A][A,A]"_Stamp" [G,G][G,G] | %78
"^Stamp"[I:staff +1] [E,,E,][B,EG]"^Stamp" [E,,E,][B,EG] | %79
"_Stamp" [B,,,B,,][B,,,B,,]"_Stamp" [E,,E,][E,,E,] :|2 %80
"_Stamp"[I:staff -1] [_A,_A][A,A]"_Stamp" [G,G][I:staff +1][=A,,=A,] || %81
"_Stamp" !^![B,,B,] z"_Stamp" z2 |"_Stamp" z !^![B,,B,]"_Stamp"!^![E,,E,] z |] %83
V:3
 x4 | x4 | x4 | x4 |: x4 | x4 | x4 | x4 | x4 | x4 | x4 | x4 | x4 | x4 | x4 | x4 | x4 | x4 | x4 |1 %19
 F2- F z :|2 F2 z2 |:[K:Eb] x4 | x4 | x4 | x4 | x4 | x4 | x4 | x4 | x4 | x4 | x4 | x4 | x4 | x4 | %35
 x4 |1 x4 :|2 x4 |: x4 | x4 | x4 | x4 | x4 | x4 | x4 | x4 | x4 | x4 | x4 | x4 | x4 | x4 | x4 |1 %53
 x4 :|2 x4 |: x4 | x4 | x4 | x4 | x4 | x4 | x4 | x4 ::[K:bass] x4 | x4 | x4 | x4 | x4 | x4 | x4 |1 %70
 x4 :|2 x4 |: x4 | x4 | x4 | x4 | x4 |1 x4 | x4 | x4 :|2 x4 || x4 | x4 |] %83
V:4
 x4 | x4 | x4 | x4 |: x4 | x4 | x4 | x4 | x4 | x4 | x4 | x4 | x4 | x4 | x4 | x4 | x4 | x4 | x4 |1 %19
 x4 :|2 x4 |:[K:Eb] x4 | x4 | x4 | x4 | x4 | x4 | x4 | x4 | x4 | x4 | x4 | x4 | x4 | x4 | %35
 z [B,E] z [A,B,D] |1 x4 :|2 x4 |: x4 | x4 | x4 | x4 | x4 | x4 | x4 | x4 | x4 | x4 | x4 | x4 | x4 | %51
 x4 | z [Be] z [ABd] |1 x4 :|2 x4 |: x4 | x4 | x4 | x4 | x4 | x4 | x4 | x4 :: x4 | x4 | x4 | x4 | %67
 x4 | x4 | x4 |1 x4 :|2 x4 |: x4 | x4 | x4 | x4 | x4 |1 x4 | x4 | x4 :|2 x4 || x4 | x4 |] %83

